public/assets/icons/camera.svg

<svg width="20" height="20" viewBox="0 0 20 20" fill="none" xmlns="http://www.w3.org/2000/svg">
<path fill-rule="evenodd" clip-rule="evenodd" d="M14.5337 5.197C14.567 5.25527 14.6253 5.29689 14.7003 5.29689C16.7003 5.29689 18.3337 6.92841 18.3337 8.92619V13.8707C18.3337 15.8685 16.7003 17.5 14.7003 17.5H5.30033C3.29199 17.5 1.66699 15.8685 1.66699 13.8707V8.92619C1.66699 6.92841 3.29199 5.29689 5.30033 5.29689C5.36699 5.29689 5.43366 5.2636 5.45866 5.197L5.50866 5.09711C5.53739 5.03665 5.56687 4.97455 5.5968 4.9115C5.80999 4.46246 6.04585 3.96567 6.19199 3.6737C6.57533 2.92453 7.22533 2.50832 8.03366 2.5H11.9587C12.767 2.50832 13.4253 2.92453 13.8087 3.6737C13.9399 3.93592 14.1399 4.35833 14.3326 4.76545C14.3724 4.84942 14.4119 4.93274 14.4503 5.01387L14.5337 5.197ZM13.9253 8.39345C13.9253 8.80966 14.2587 9.14262 14.6753 9.14262C15.092 9.14262 15.4337 8.80966 15.4337 8.39345C15.4337 7.97725 15.092 7.63596 14.6753 7.63596C14.2587 7.63596 13.9253 7.97725 13.9253 8.39345ZM8.55866 9.68368C8.95033 9.29245 9.45866 9.08435 10.0003 9.08435C10.542 9.08435 11.0503 9.29245 11.4337 9.67536C11.817 10.0583 12.0253 10.566 12.0253 11.1071C12.017 12.2225 11.117 13.1299 10.0003 13.1299C9.45866 13.1299 8.95033 12.9218 8.56699 12.5388C8.18366 12.1559 7.97533 11.6482 7.97533 11.1071V11.0988C7.96699 10.5744 8.17533 10.0666 8.55866 9.68368ZM12.3087 13.4212C11.717 14.0122 10.9003 14.3785 10.0003 14.3785C9.12533 14.3785 8.30866 14.0372 7.68366 13.4212C7.06699 12.7969 6.72533 11.9811 6.72533 11.1071C6.71699 10.2414 7.05866 9.42564 7.67533 8.80133C8.30033 8.17703 9.12533 7.83574 10.0003 7.83574C10.8753 7.83574 11.7003 8.17703 12.317 8.79301C12.9337 9.41731 13.2753 10.2414 13.2753 11.1071C13.267 12.0144 12.9003 12.8302 12.3087 13.4212Z" fill="#7986AC"/>
</svg>

<?xml version="1.0"?>
<svg width="20" height="20" xmlns="http://www.w3.org/2000/svg" xmlns:svg="http://www.w3.org/2000/svg">
 <g class="layer">
  <title>Layer 1</title>
  <path clip-rule="evenodd" d="m14.53,5.2c0.04,0.06 0.1,0.1 0.17,0.1c2,0 3.63,1.63 3.63,3.63l0,4.94c0,2 -1.63,3.63 -3.63,3.63l-9.4,0c-2.01,0 -3.63,-1.63 -3.63,-3.63l0,-4.94c0,-2 1.62,-3.63 3.63,-3.63c0.07,0 0.13,-0.04 0.16,-0.1l0.05,-0.1c0.03,-0.06 0.06,-0.13 0.09,-0.19c0.21,-0.45 0.45,-0.94 0.59,-1.24c0.39,-0.75 1.04,-1.16 1.84,-1.17l3.93,0c0.81,0.01 1.47,0.42 1.85,1.17c0.13,0.27 0.33,0.69 0.52,1.1c0.04,0.08 0.08,0.16 0.12,0.24l0.08,0.19zm-0.6,3.19c0,0.42 0.33,0.75 0.75,0.75c0.41,0 0.75,-0.33 0.75,-0.75c0,-0.41 -0.34,-0.75 -0.75,-0.75c-0.42,0 -0.75,0.34 -0.75,0.75zm-5.37,1.29c0.39,-0.39 0.9,-0.6 1.44,-0.6c0.54,0 1.05,0.21 1.43,0.6c0.39,0.38 0.6,0.89 0.6,1.43c-0.01,1.11 -0.91,2.02 -2.03,2.02c-0.54,0 -1.05,-0.21 -1.43,-0.59c-0.39,-0.38 -0.59,-0.89 -0.59,-1.43l0,-0.01c-0.01,-0.53 0.2,-1.03 0.58,-1.42zm3.75,3.74c-0.59,0.59 -1.41,0.96 -2.31,0.96c-0.87,0 -1.69,-0.34 -2.32,-0.96c-0.61,-0.62 -0.95,-1.44 -0.95,-2.31c-0.01,-0.87 0.33,-1.68 0.95,-2.31c0.62,-0.63 1.45,-0.96 2.32,-0.96c0.88,0 1.7,0.34 2.32,0.95c0.61,0.63 0.96,1.45 0.96,2.32c-0.01,0.9 -0.38,1.72 -0.97,2.31z" fill="#000000" fill-rule="evenodd" id="svg_1"/>
 </g>
</svg>
